static/img/logo-bat.svg

<svg viewBox="0 0 652.70635 395.04362" xmlns="http://www.w3.org/2000/svg" xmlns:xlink="http://www.w3.org/1999/xlink"><symbol id="a" viewBox="0 0 30.416 30.798"><path d="m0 0h30.24519v3.40411h-26.07689v9.82843h25.05452v3.40124h-25.05452v10.76427h26.24757v3.40025h-30.41587z" fill="#231f20"/></symbol><symbol id="b" viewBox="0 0 28.077 30.798"><path d="m0 0h4.16978v27.39805h23.90692v3.40025h-28.0767z" fill="#231f20"/></symbol><symbol id="c" viewBox="0 0 35.306 30.798"><path d="m15.56785 3.40411h-15.56785v-3.40411h35.30647v3.40411h-15.56884v27.39419h-4.16978z" fill="#231f20"/></symbol><symbol id="d" viewBox="0 0 38.584 30.798"><path d="m0 0h6.21067l28.20391 27.05482v-27.05482h4.16928v30.7983h-6.21066l-28.20391-27.05382v27.05382h-4.16929z" fill="#231f20"/></symbol><symbol id="e" viewBox="0 0 41.776 30.798"><path d="m18.29273 0h5.19027l18.29272 30.7983h-4.72329l-3.827-6.50657h-24.67272l-3.82991 6.50657h-4.7228zm2.59637 3.40411-10.338 17.48162h20.674z" fill="#231f20"/></symbol><symbol id="f" viewBox="0 0 38.582 31.477"><path d="m38.58188 20.121c0 8.383-2.72151 11.356-10.421 11.356h-17.18683c-8.33669 0-10.97405-3.73968-10.97405-11.52523v-8.4257c0-7.78268 2.63736-11.52607 10.97405-11.52607h15.7424c5.52915 0 11.441 1.36026 11.441 8.4643v1.105h-3.91256c0-5.74279-1.74319-6.16532-12.03949-6.16532h-10.806c-3.99673 0-7.23066 1.1872-7.23066 6.55v11.56684c0 5.36382 3.23393 6.55687 7.23066 6.55687h16.29248c4.17275 0 6.7222-1.44827 6.7222-5.70221v-3.10348h-15.78098v-3.407h19.94878z" fill="#231f20"/></symbol><symbol id="g" viewBox="0 0 62.119 49.269"><path d="m0 18.04125c0-12.18217 4.1258-18.04125 17.17762-18.04125h27.7642c13.05181 0 17.17761 5.85908 17.17761 18.04125v13.18636c0 12.18614-4.1258 18.04124-17.17761 18.04124h-27.7642c-13.05182 0-17.17762-5.8551-17.17762-18.04124zm55.597-2.46034c0-8.39409-5.06318-10.25274-11.32262-10.25274h-26.43238c-6.25749 0-11.32056 1.85865-11.32056 10.25274v18.105c0 8.39409 5.06307 10.25977 11.32056 10.25977h26.43242c6.25944 0 11.32262-1.86568 11.32262-10.25977z" fill="#231f20"/></symbol><symbol id="h" viewBox="0 0 44.935 38.915"><path d="m33.701 0h-22.467l-11.234 19.457 11.234 19.458h22.467l11.234-19.458z" fill="#231f20"/></symbol><path d="m79.4035 384.46541h26.29064c6.37986 0 8.1675 3.31809 8.1675 6.84981v2.63647c0 2.21294-1.23513 4.46757-4.97812 4.84843v.17017c3.27651.17019 6.1682 1.40571 6.1682 6.08306v3.66221c0 4.29452-3.82754 6.54815-8.93366 6.54815h-26.71456zm30.28786 6.63607c0-2.80467-3.10543-3.23195-4.38015-3.23195h-21.73842v9.82847h21.52527c2.255 0 4.5933-.72607 4.5933-3.786zm1.19107 14.42272c0-3.83141-2.12652-4.425-5.912-4.425h-21.39764v10.76427h22.03433c3.87347 0 5.27531-1.4057 5.27531-4.1282z" fill="#231f20" transform="translate(-71.57262 -92.65177)"/><use height="30.7983" transform="translate(50.90608 291.81364)" width="30.41587" xlink:href="#a"/><use height="30.7983" transform="translate(87.68012 291.81364)" width="28.0767" xlink:href="#b"/><use height="30.7983" transform="translate(112.1652 291.81364)" width="35.30647" xlink:href="#c"/><path d="m224.00052 384.46541h4.1684v30.7983h-4.1684z" fill="#231f20" transform="translate(-71.57262 -92.65177)"/><use height="30.7983" transform="translate(164.64341 291.81364)" width="38.58386" xlink:href="#d"/><path d="m320.51344 404.2471c0 8.383-2.723 11.356-10.422 11.356h-17.18771c-8.33768 0-10.97564-3.73963-10.97564-11.52518v-8.4257c0-7.78268 2.638-11.52607 10.97564-11.52607h15.74091c5.53 0 11.4429 1.36026 11.4429 8.4643v1.105h-3.91454c0-5.74279-1.74358-6.16532-12.03849-6.16532h-10.80451c-4.00009 0-7.23353 1.1872-7.23353 6.55v11.56687c0 5.36382 3.23344 6.55687 7.23353 6.55687h16.29342c4.1684 0 6.71923-1.44828 6.71923-5.70221v-3.10345h-15.7805v-3.407h19.95127z" fill="#231f20" transform="translate(-71.57262 -92.65177)"/><use height="30.7983" transform="translate(273.39164 291.81364)" width="41.77572" xlink:href="#e"/><path d="m391.23132 384.46541h24.88622c10.33611 0 13.14265 3.23493 13.14265 15.40015 0 11.31539-2.80654 15.39815-13.27115 15.39815h-24.75772zm33.86009 13.9093c0-8.88673-2.76408-10.50518-7.86972-10.50518h-21.82208v23.99393h21.14145c5.06306 0 8.55035-1.10791 8.55035-10.33886z" fill="#231f20" transform="translate(-71.57262 -92.65177)"/><path d="m433.45511 384.46541h4.67934l14.93029 27.05482 14.93306-27.05482h4.67834l-17.05808 30.7983h-5.10475z" fill="#231f20" transform="translate(-71.57262 -92.65177)"/><use height="31.47695" transform="translate(566.67141 291.47437)" width="38.58188" xlink:href="#f"/><path d="m190.68546 456.46529c0-12.18217 4.13029-18.04125 17.17721-18.04125h24.97051c11.85251 0 15.11477 5.52442 15.11477 11.985v4.12488h-5.72454v-2.19444c0-8.18988-5.06318-8.58727-11.05864-8.58727h-22.63472c-6.25749 0-11.31771 1.85864-11.31771 10.25273v18.105c0 8.39409 5.06022 10.25977 11.31771 10.25977h22.83895c8.78853 0 11.32007-1.86568 11.32007-8.391v-2.99432h6.12255v3.25921c0 8.72283-2.79409 13.44931-16.3096 13.44931h-24.63935c-13.04692 0-17.17721-5.85511-17.17721-18.04125z" fill="#231f20" transform="translate(-71.57262 -92.65177)"/><path d="m259.37012 438.956h6.52443v20.71079h43.54624v-20.71079h6.52239v48.205h-6.52239v-22.172h-43.54624v22.172h-6.52443z" fill="#231f20" transform="translate(-71.57262 -92.65177)"/><use height="49.26885" transform="translate(328.36624 345.77226)" width="62.11943" xlink:href="#g"/><path d="m690.12192 466.78687-27.63466-27.83087h8.78557l22.11125 22.37033 22.1033-22.37033h8.79162l-27.63465 27.8309v20.3741h-6.52239z" fill="#231f20" transform="translate(-71.57262 -92.65177)"/><path d="m454.516 259.707-23.205-45.915h-151.317l-21.849 45.915z" fill="#231f20"/><g transform="translate(-71.57262 -92.65177)"><path d="m281.24044 177.28426c0-15.07091-8.07708-20.44612-21.86252-20.44612h-105.82874v40.52733h105.82874c13.78544 0 21.86252-5.37375 21.86252-20.08121z" fill="none"/><path d="m261.06142 251.1818h-107.51224v40.52762h107.51224c8.20679 0 15.01194-1.03079 19.73023-4.014l7.12724-14.04042c.01067-.32491.04406-.62588.04406-.96072.00005-17.56828-10.7605-21.51248-26.90153-21.51248z" fill="none"/><path d="m261.06142 291.70942h-107.51224v-40.52762h107.51224c16.141 0 26.90153 3.9442 26.90153 21.51252 0 .33484-.03339.63581-.04406.96072l66.24678-130.51517c-6.99507-35.96309-35.5333-48.71932-86.71067-48.71932h-188.5586v259.70761h168.17517l33.72008-66.4327c-4.71829 2.98317-11.52344 4.01396-19.73023 4.01396zm-107.51224-134.87128h105.82874c13.78544 0 21.86252 5.37521 21.86252 20.44612 0 14.70746-8.07708 20.08121-21.86252 20.08121h-105.82874z"/></g><path d="m307.908 157.827h95.502l-48.421-97.571z" fill="#231f20"/><path d="m721.316 157.21735h-104.90657v195.14175h-8.32857l-66.32419-128.70464v-66.43711h-34.23567l-33.27239-64.56558h247.06739s-.84181 65.40735 0 64.56558z" fill="#231f20" transform="translate(-71.57262 -92.65177)"/><use height="38.9146" transform="translate(202.90583 224.52516)" width="44.93471" xlink:href="#h"/><use height="38.9146" transform="translate(466.89263 224.52516)" width="44.93471" xlink:href="#h"/><use height="38.9146" transform="translate(561.38791 224.52516)" width="44.93471" xlink:href="#h"/><use height="30.7983" transform="translate(612.63994 291.81557)" width="30.41587" xlink:href="#a"/><use height="30.7983" transform="translate(398.74871 291.81557)" width="41.77572" xlink:href="#e"/><use height="30.7983" transform="translate(520.95955 291.81557)" width="41.77572" xlink:href="#e"/><use height="30.7983" transform="translate(488.17669 291.81557)" width="35.30647" xlink:href="#c"/><use height="30.7983" transform="translate(445.01596 291.81364)" width="38.58386" xlink:href="#d"/><use height="30.7983" transform="matrix(1.56518 0 0 1.56518 0 346.30419)" width="35.30647" xlink:href="#c"/><use height="30.7983" transform="matrix(1.56518 0 0 1.56518 62.8171 346.30419)" width="30.41587" xlink:href="#a"/><use height="30.7983" transform="matrix(1.55601 0 0 1.55601 257.16908 346.30419)" width="38.58386" xlink:href="#d"/><use height="49.26885" transform="translate(328.36624 345.77226)" width="62.11943" xlink:href="#g"/><use height="49.26885" transform="translate(451.7459 345.77476)" width="62.11943" xlink:href="#g"/><use height="30.7983" transform="matrix(1.55645 0 0 1.55645 402.29102 346.30419)" width="28.0767" xlink:href="#b"/><use height="31.47695" transform="matrix(1.55234 0 0 1.55234 524.41086 345.77226)" width="38.58188" xlink:href="#f"/></svg>

<svg id="Layer_1" data-name="Layer 1" xmlns="http://www.w3.org/2000/svg" xmlns:xlink="http://www.w3.org/1999/xlink" viewBox="0 0 652.70635 395.04362">
  <defs>
    <symbol id="E" data-name="E" viewBox="0 0 30.416 30.798">
      <path d="M0,0H30.24519V3.40411H4.1683v9.82843H29.22282v3.40124H4.1683V27.39805H30.41587V30.7983H0Z" style="fill: #231f20"/>
    </symbol>
    <symbol id="L" data-name="L" viewBox="0 0 28.077 30.798">
      <path d="M0,0H4.16978V27.39805H28.0767V30.7983H0Z" style="fill: #231f20"/>
    </symbol>
    <symbol id="T" data-name="T" viewBox="0 0 35.306 30.798">
      <path d="M15.56785,3.40411H0V0H35.30647V3.40411H19.73763V30.7983H15.56785Z" style="fill: #231f20"/>
    </symbol>
    <symbol id="N" data-name="N" viewBox="0 0 38.584 30.798">
      <path d="M0,0H6.21067L34.41458,27.05482V0h4.16928V30.7983H32.3732L4.16929,3.74448V30.7983H0Z" style="fill: #231f20"/>
    </symbol>
    <symbol id="A" data-name="A" viewBox="0 0 41.776 30.798">
      <path d="M18.29273,0H23.483L41.77572,30.7983H37.05243l-3.827-6.50657H8.55271L4.7228,30.7983H0ZM20.8891,3.40411l-10.338,17.48162h20.674Z" style="fill: #231f20"/>
    </symbol>
    <symbol id="G" data-name="G" viewBox="0 0 38.582 31.477">
      <path d="M38.58188,20.121c0,8.383-2.72151,11.356-10.421,11.356H10.97405C2.63736,31.477,0,27.73732,0,19.95177v-8.4257C0,3.74339,2.63736,0,10.97405,0h15.7424c5.52915,0,11.441,1.36026,11.441,8.4643v1.105H34.24489c0-5.74279-1.74319-6.16532-12.03949-6.16532h-10.806c-3.99673,0-7.23066,1.1872-7.23066,6.55V21.52082c0,5.36382,3.23393,6.55687,7.23066,6.55687H27.69188c4.17275,0,6.7222-1.44827,6.7222-5.70221V19.272H18.6331v-3.407H38.58188Z" style="fill: #231f20"/>
    </symbol>
    <symbol id="O" data-name="O" viewBox="0 0 62.119 49.269">
      <path d="M0,18.04125C0,5.85908,4.1258,0,17.17762,0h27.7642C57.99363,0,62.11943,5.85908,62.11943,18.04125V31.22761c0,12.18614-4.1258,18.04124-17.17761,18.04124H17.17762C4.1258,49.26885,0,43.41375,0,31.22761Zm55.597-2.46034c0-8.39409-5.06318-10.25274-11.32262-10.25274H17.842c-6.25749,0-11.32056,1.85865-11.32056,10.25274v18.105c0,8.39409,5.06307,10.25977,11.32056,10.25977H44.27442c6.25944,0,11.32262-1.86568,11.32262-10.25977Z" style="fill: #231f20"/>
    </symbol>
    <symbol id="bolt" data-name="bolt" viewBox="0 0 44.935 38.915">
      <polygon points="33.701 0 11.234 0 0 19.457 11.234 38.915 33.701 38.915 44.935 19.457 33.701 0" style="fill: #231f20"/>
    </symbol>
  </defs>
  <title>FINAL BAT Logo B&amp;amp;W</title>
  <g>
    <path d="M79.4035,384.46541h26.29064c6.37986,0,8.1675,3.31809,8.1675,6.84981v2.63647c0,2.21294-1.23513,4.46757-4.97812,4.84843v.17017c3.27651.17019,6.1682,1.40571,6.1682,6.08306v3.66221c0,4.29452-3.82754,6.54815-8.93366,6.54815H79.4035Zm30.28786,6.63607c0-2.80467-3.10543-3.23195-4.38015-3.23195H83.57279V397.698h21.52527c2.255,0,4.5933-.72607,4.5933-3.786Zm1.19107,14.42272c0-3.83141-2.12652-4.425-5.912-4.425H83.57279v10.76427h22.03433c3.87347,0,5.27531-1.4057,5.27531-4.1282Z" transform="translate(-71.57262 -92.65177)" style="fill: #231f20"/>
    <use width="30.41587" height="30.7983" transform="translate(50.90608 291.81364)" xlink:href="#E"/>
    <use width="28.0767" height="30.7983" transform="translate(87.68012 291.81364)" xlink:href="#L"/>
    <use width="35.30647" height="30.7983" transform="translate(112.1652 291.81364)" xlink:href="#T"/>
    <path d="M224.00052,384.46541h4.1684v30.7983h-4.1684Z" transform="translate(-71.57262 -92.65177)" style="fill: #231f20"/>
    <use width="38.58386" height="30.7983" transform="translate(164.64341 291.81364)" xlink:href="#N"/>
    <path d="M320.51344,404.2471c0,8.383-2.723,11.356-10.422,11.356H292.90373c-8.33768,0-10.97564-3.73963-10.97564-11.52518v-8.4257c0-7.78268,2.638-11.52607,10.97564-11.52607h15.74091c5.53,0,11.4429,1.36026,11.4429,8.4643v1.105H316.173c0-5.74279-1.74358-6.16532-12.03849-6.16532H293.33c-4.00009,0-7.23353,1.1872-7.23353,6.55V405.647c0,5.36382,3.23344,6.55687,7.23353,6.55687h16.29342c4.1684,0,6.71923-1.44828,6.71923-5.70221v-3.10345h-15.7805v-3.407h19.95127Z" transform="translate(-71.57262 -92.65177)" style="fill: #231f20"/>
    <use width="41.77572" height="30.7983" transform="translate(273.39164 291.81364)" xlink:href="#A"/>
    <path d="M391.23132,384.46541h24.88622c10.33611,0,13.14265,3.23493,13.14265,15.40015,0,11.31539-2.80654,15.39815-13.27115,15.39815H391.23132Zm33.86009,13.9093c0-8.88673-2.76408-10.50518-7.86972-10.50518H395.39961v23.99393h21.14145c5.06306,0,8.55035-1.10791,8.55035-10.33886Z" transform="translate(-71.57262 -92.65177)" style="fill: #231f20"/>
    <path d="M433.45511,384.46541h4.67934l14.93029,27.05482,14.93306-27.05482h4.67834l-17.05808,30.7983h-5.10475Z" transform="translate(-71.57262 -92.65177)" style="fill: #231f20"/>
    <use width="38.58188" height="31.47695" transform="translate(566.67141 291.47437)" xlink:href="#G"/>
    <path d="M190.68546,456.46529c0-12.18217,4.13029-18.04125,17.17721-18.04125h24.97051c11.85251,0,15.11477,5.52442,15.11477,11.985v4.12488h-5.72454v-2.19444c0-8.18988-5.06318-8.58727-11.05864-8.58727H208.53005c-6.25749,0-11.31771,1.85864-11.31771,10.25273v18.105c0,8.39409,5.06022,10.25977,11.31771,10.25977H231.369c8.78853,0,11.32007-1.86568,11.32007-8.391v-2.99432h6.12255v3.25921c0,8.72283-2.79409,13.44931-16.3096,13.44931H207.86267c-13.04692,0-17.17721-5.85511-17.17721-18.04125Z" transform="translate(-71.57262 -92.65177)" style="fill: #231f20"/>
    <path d="M259.37012,438.956h6.52443v20.71079h43.54624V438.956h6.52239v48.205h-6.52239v-22.172H265.89455v22.172h-6.52443Z" transform="translate(-71.57262 -92.65177)" style="fill: #231f20"/>
    <use width="62.11943" height="49.26885" transform="translate(328.36624 345.77226)" xlink:href="#O"/>
    <path d="M690.12192,466.78687,662.48726,438.956h8.78557l22.11125,22.37033,22.1033-22.37033H724.279l-27.63465,27.8309V487.161h-6.52239Z" transform="translate(-71.57262 -92.65177)" style="fill: #231f20"/>
    <polygon points="454.516 259.707 431.311 213.792 279.994 213.792 258.145 259.707 454.516 259.707" style="fill: #231f20"/>
    <g>
      <path d="M281.24044,177.28426c0-15.07091-8.07708-20.44612-21.86252-20.44612H153.54918v40.52733H259.37792C273.16336,197.36547,281.24044,191.99172,281.24044,177.28426Z" transform="translate(-71.57262 -92.65177)" style="fill: none"/>
      <path d="M261.06142,251.1818H153.54918v40.52762H261.06142c8.20679,0,15.01194-1.03079,19.73023-4.014l7.12724-14.04042c.01067-.32491.04406-.62588.04406-.96072C287.963,255.126,277.20245,251.1818,261.06142,251.1818Z" transform="translate(-71.57262 -92.65177)" style="fill: none"/>
      <path d="M261.06142,291.70942H153.54918V251.1818H261.06142c16.141,0,26.90153,3.9442,26.90153,21.51252,0,.33484-.03339.63581-.04406.96072l66.24678-130.51517c-6.99507-35.96309-35.5333-48.71932-86.71067-48.71932H78.8964V354.12816H247.07157l33.72008-66.4327C276.07336,290.67863,269.26821,291.70942,261.06142,291.70942ZM153.54918,156.83814H259.37792c13.78544,0,21.86252,5.37521,21.86252,20.44612,0,14.70746-8.07708,20.08121-21.86252,20.08121H153.54918Z" transform="translate(-71.57262 -92.65177)"/>
    </g>
    <polygon points="307.908 157.827 403.41 157.827 354.989 60.256 307.908 157.827" style="fill: #231f20"/>
    <path d="M721.316,157.21735H616.40943V352.3591h-8.32857L541.75667,223.65446V157.21735H507.521L474.24861,92.65177H721.316S720.47419,158.05912,721.316,157.21735Z" transform="translate(-71.57262 -92.65177)" style="fill: #231f20"/>
    <use width="44.93471" height="38.9146" transform="translate(202.90583 224.52516)" xlink:href="#bolt"/>
    <use width="44.93471" height="38.9146" transform="translate(466.89263 224.52516)" xlink:href="#bolt"/>
    <use width="44.93471" height="38.9146" transform="translate(561.38791 224.52516)" xlink:href="#bolt"/>
    <use width="30.41587" height="30.7983" transform="translate(612.63994 291.81557)" xlink:href="#E"/>
    <use width="41.77572" height="30.7983" transform="translate(398.74871 291.81557)" xlink:href="#A"/>
    <use width="41.77572" height="30.7983" transform="translate(520.95955 291.81557)" xlink:href="#A"/>
    <use width="35.30647" height="30.7983" transform="translate(488.17669 291.81557)" xlink:href="#T"/>
    <use width="38.58386" height="30.7983" transform="translate(445.01596 291.81364)" xlink:href="#N"/>
    <use width="35.30647" height="30.7983" transform="translate(0 346.30419) scale(1.56518)" xlink:href="#T"/>
    <use width="30.41587" height="30.7983" transform="translate(62.8171 346.30419) scale(1.56518)" xlink:href="#E"/>
    <use width="38.58386" height="30.7983" transform="translate(257.16908 346.30419) scale(1.55601)" xlink:href="#N"/>
    <use width="62.11943" height="49.26885" transform="translate(328.36624 345.77226)" xlink:href="#O"/>
    <use width="62.11943" height="49.26885" transform="translate(451.7459 345.77476)" xlink:href="#O"/>
    <use width="28.0767" height="30.7983" transform="translate(402.29102 346.30419) scale(1.55645)" xlink:href="#L"/>
    <use width="38.58188" height="31.47695" transform="translate(524.41086 345.77226) scale(1.55234)" xlink:href="#G"/>
  </g>
</svg>
